icons/project-template-16.svg

<svg width="16" height="16" viewBox="0 0 16 16" fill="none" xmlns="http://www.w3.org/2000/svg">
<g clip-path="url(#clip0_9012_4)">
<path d="M1.5 1.75V3.312C1.5 3.51091 1.42098 3.70168 1.28033 3.84233C1.13968 3.98298 0.948912 4.062 0.75 4.062C0.551088 4.062 0.360322 3.98298 0.21967 3.84233C0.0790176 3.70168 0 3.51091 0 3.312L0 1.75C0 0.784 0.784 0 1.75 0H3.312C3.51091 0 3.70168 0.0790176 3.84233 0.21967C3.98298 0.360322 4.062 0.551088 4.062 0.75C4.062 0.948912 3.98298 1.13968 3.84233 1.28033C3.70168 1.42098 3.51091 1.5 3.312 1.5H1.75C1.6837 1.5 1.62011 1.52634 1.57322 1.57322C1.52634 1.62011 1.5 1.6837 1.5 1.75ZM6.438 0H9.562C9.76091 0 9.95168 0.0790176 10.0923 0.21967C10.233 0.360322 10.312 0.551088 10.312 0.75C10.312 0.948912 10.233 1.13968 10.0923 1.28033C9.95168 1.42098 9.76091 1.5 9.562 1.5H6.438C6.23909 1.5 6.04832 1.42098 5.90767 1.28033C5.76702 1.13968 5.688 0.948912 5.688 0.75C5.688 0.551088 5.76702 0.360322 5.90767 0.21967C6.04832 0.0790176 6.23909 0 6.438 0ZM12.688 0H14.25C15.217 0 16 0.784 16 1.75V3.312C16 3.51091 15.921 3.70168 15.7803 3.84233C15.6397 3.98298 15.4489 4.062 15.25 4.062C15.0511 4.062 14.8603 3.98298 14.7197 3.84233C14.579 3.70168 14.5 3.51091 14.5 3.312V1.75C14.5 1.6837 14.4737 1.62011 14.4268 1.57322C14.3799 1.52634 14.3163 1.5 14.25 1.5H12.688C12.4891 1.5 12.2983 1.42098 12.1577 1.28033C12.017 1.13968 11.938 0.948912 11.938 0.75C11.938 0.551088 12.017 0.360322 12.1577 0.21967C12.2983 0.0790176 12.4891 0 12.688 0ZM1.5 6.438V9.562C1.5 9.76091 1.42098 9.95168 1.28033 10.0923C1.13968 10.233 0.948912 10.312 0.75 10.312C0.551088 10.312 0.360322 10.233 0.21967 10.0923C0.0790176 9.95168 0 9.76091 0 9.562L0 6.438C0 6.23909 0.0790176 6.04832 0.21967 5.90767C0.360322 5.76702 0.551088 5.688 0.75 5.688C0.948912 5.688 1.13968 5.76702 1.28033 5.90767C1.42098 6.04832 1.5 6.23909 1.5 6.438ZM16 6.438V9.562C16 9.76091 15.921 9.95168 15.7803 10.0923C15.6397 10.233 15.4489 10.312 15.25 10.312C15.0511 10.312 14.8603 10.233 14.7197 10.0923C14.579 9.95168 14.5 9.76091 14.5 9.562V6.438C14.5 6.23909 14.579 6.04832 14.7197 5.90767C14.8603 5.76702 15.0511 5.688 15.25 5.688C15.4489 5.688 15.6397 5.76702 15.7803 5.90767C15.921 6.04832 16 6.23909 16 6.438ZM1.5 12.688V14.25C1.5 14.388 1.612 14.5 1.75 14.5H3.312C3.51091 14.5 3.70168 14.579 3.84233 14.7197C3.98298 14.8603 4.062 15.0511 4.062 15.25C4.062 15.4489 3.98298 15.6397 3.84233 15.7803C3.70168 15.921 3.51091 16 3.312 16H1.75C1.28587 16 0.840752 15.8156 0.512563 15.4874C0.184374 15.1592 0 14.7141 0 14.25L0 12.688C0 12.4891 0.0790176 12.2983 0.21967 12.1577C0.360322 12.017 0.551088 11.938 0.75 11.938C0.948912 11.938 1.13968 12.017 1.28033 12.1577C1.42098 12.2983 1.5 12.4891 1.5 12.688ZM16 12.688V14.25C16 14.4798 15.9547 14.7074 15.8668 14.9197C15.7788 15.132 15.6499 15.3249 15.4874 15.4874C15.3249 15.6499 15.132 15.7788 14.9197 15.8668C14.7074 15.9547 14.4798 16 14.25 16H12.688C12.4891 16 12.2983 15.921 12.1577 15.7803C12.017 15.6397 11.938 15.4489 11.938 15.25C11.938 15.0511 12.017 14.8603 12.1577 14.7197C12.2983 14.579 12.4891 14.5 12.688 14.5H14.25C14.3163 14.5 14.3799 14.4737 14.4268 14.4268C14.4737 14.3799 14.5 14.3163 14.5 14.25V12.688C14.5 12.4891 14.579 12.2983 14.7197 12.1577C14.8603 12.017 15.0511 11.938 15.25 11.938C15.4489 11.938 15.6397 12.017 15.7803 12.1577C15.921 12.2983 16 12.4891 16 12.688ZM6.438 14.5H9.562C9.76091 14.5 9.95168 14.579 10.0923 14.7197C10.233 14.8603 10.312 15.0511 10.312 15.25C10.312 15.4489 10.233 15.6397 10.0923 15.7803C9.95168 15.921 9.76091 16 9.562 16H6.438C6.23909 16 6.04832 15.921 5.90767 15.7803C5.76702 15.6397 5.688 15.4489 5.688 15.25C5.688 15.0511 5.76702 14.8603 5.90767 14.7197C6.04832 14.579 6.23909 14.5 6.438 14.5ZM6.5 3V4C6.5 4.19891 6.42098 4.38968 6.28033 4.53033C6.13968 4.67098 5.94891 4.75 5.75 4.75C5.55109 4.75 5.36032 4.67098 5.21967 4.53033C5.07902 4.38968 5 4.19891 5 4V3C5 2.80109 5.07902 2.61032 5.21967 2.46967C5.36032 2.32902 5.55109 2.25 5.75 2.25C5.94891 2.25 6.13968 2.32902 6.28033 2.46967C6.42098 2.61032 6.5 2.80109 6.5 3ZM2.25 5.75C2.25 5.55109 2.32902 5.36032 2.46967 5.21967C2.61032 5.07902 2.80109 5 3 5H4C4.19891 5 4.38968 5.07902 4.53033 5.21967C4.67098 5.36032 4.75 5.55109 4.75 5.75C4.75 5.94891 4.67098 6.13968 4.53033 6.28033C4.38968 6.42098 4.19891 6.5 4 6.5H3C2.80109 6.5 2.61032 6.42098 2.46967 6.28033C2.32902 6.13968 2.25 5.94891 2.25 5.75ZM6.75 5.75C6.75 5.55109 6.82902 5.36032 6.96967 5.21967C7.11032 5.07902 7.30109 5 7.5 5H8.5C8.69891 5 8.88968 5.07902 9.03033 5.21967C9.17098 5.36032 9.25 5.55109 9.25 5.75C9.25 5.94891 9.17098 6.13968 9.03033 6.28033C8.88968 6.42098 8.69891 6.5 8.5 6.5H7.5C7.30109 6.5 7.11032 6.42098 6.96967 6.28033C6.82902 6.13968 6.75 5.94891 6.75 5.75ZM5.75 6.75C5.94891 6.75 6.13968 6.82902 6.28033 6.96967C6.42098 7.11032 6.5 7.30109 6.5 7.5V8.5C6.5 8.69891 6.42098 8.88968 6.28033 9.03033C6.13968 9.17098 5.94891 9.25 5.75 9.25C5.55109 9.25 5.36032 9.17098 5.21967 9.03033C5.07902 8.88968 5 8.69891 5 8.5V7.5C5 7.30109 5.07902 7.11032 5.21967 6.96967C5.36032 6.82902 5.55109 6.75 5.75 6.75ZM6.5 10.75V13.25C6.5 13.4489 6.42098 13.6397 6.28033 13.7803C6.13968 13.921 5.94891 14 5.75 14C5.55109 14 5.36032 13.921 5.21967 13.7803C5.07902 13.6397 5 13.4489 5 13.25V10.75C5 10.5511 5.07902 10.3603 5.21967 10.2197C5.36032 10.079 5.55109 10 5.75 10C5.94891 10 6.13968 10.079 6.28033 10.2197C6.42098 10.3603 6.5 10.5511 6.5 10.75ZM10 5.75C10 5.55109 10.079 5.36032 10.2197 5.21967C10.3603 5.07902 10.5511 5 10.75 5H13.25C13.4489 5 13.6397 5.07902 13.7803 5.21967C13.921 5.36032 14 5.55109 14 5.75C14 5.94891 13.921 6.13968 13.7803 6.28033C13.6397 6.42098 13.4489 6.5 13.25 6.5H10.75C10.5511 6.5 10.3603 6.42098 10.2197 6.28033C10.079 6.13968 10 5.94891 10 5.75Z" fill="black"/>
</g>
<defs>
<clipPath id="clip0_9012_4">
<rect width="16" height="16" fill="white"/>
</clipPath>
</defs>
</svg>

<svg xmlns="http://www.w3.org/2000/svg" width="16" height="16" viewBox="0 0 16 16"><path d="M12.688 0h1.562C15.217 0 16 .784 16 1.75v1.562c0 .199-.079.39-.22.53a.747.747 0 0 1-1.06 0 .75.75 0 0 1-.22-.53V1.75a.25.25 0 0 0-.25-.25h-1.562a.75.75 0 0 1-.53-.22.747.747 0 0 1 0-1.06.75.75 0 0 1 .53-.22M1.5 1.75v1.562c0 .199-.079.39-.22.53a.747.747 0 0 1-1.06 0 .75.75 0 0 1-.22-.53V1.75C0 .784.784 0 1.75 0h1.562c.199 0 .39.079.53.22a.747.747 0 0 1 0 1.06.75.75 0 0 1-.53.22H1.75a.25.25 0 0 0-.25.25m0 10.938v1.562c0 .138.112.25.25.25h1.562c.199 0 .39.079.53.22a.747.747 0 0 1 0 1.06.75.75 0 0 1-.53.22H1.75c-.464 0-.909-.184-1.237-.513A1.75 1.75 0 0 1 0 14.25v-1.562c0-.199.079-.39.22-.53a.747.747 0 0 1 1.06 0c.141.14.22.331.22.53m14.5 0v1.562a1.75 1.75 0 0 1-1.08 1.617c-.213.088-.44.133-.67.133h-1.562a.75.75 0 0 1-.53-.22.747.747 0 0 1 0-1.06.75.75 0 0 1 .53-.22h1.562a.25.25 0 0 0 .25-.25v-1.562c0-.199.079-.39.22-.53a.747.747 0 0 1 1.06 0c.141.14.22.331.22.53M6.438 0h3.124c.199 0 .39.079.53.22a.747.747 0 0 1 0 1.06.75.75 0 0 1-.53.22H6.438a.75.75 0 0 1-.53-.22.747.747 0 0 1 0-1.06.75.75 0 0 1 .53-.22M1.5 6.438v3.124c0 .199-.079.39-.22.53a.747.747 0 0 1-1.06 0 .75.75 0 0 1-.22-.53V6.438c0-.199.079-.39.22-.53a.747.747 0 0 1 1.06 0c.141.14.22.331.22.53M6.438 14.5h3.124c.199 0 .39.079.53.22a.747.747 0 0 1 0 1.06.75.75 0 0 1-.53.22H6.438a.75.75 0 0 1-.53-.22.747.747 0 0 1 0-1.06.75.75 0 0 1 .53-.22M16 6.438v3.124c0 .199-.079.39-.22.53a.747.747 0 0 1-1.06 0 .75.75 0 0 1-.22-.53V6.438c0-.199.079-.39.22-.53a.747.747 0 0 1 1.06 0c.141.14.22.331.22.53M6.5 10.75v2.5c0 .199-.079.39-.22.53a.747.747 0 0 1-1.06 0 .75.75 0 0 1-.22-.53v-2.5c0-.199.079-.39.22-.53a.747.747 0 0 1 1.06 0c.141.14.22.331.22.53m3.5-5c0-.199.079-.39.22-.53a.75.75 0 0 1 .53-.22h2.5c.199 0 .39.079.53.22a.747.747 0 0 1 0 1.06.75.75 0 0 1-.53.22h-2.5a.75.75 0 0 1-.53-.22.75.75 0 0 1-.22-.53m-4.25 1c.199 0 .39.079.53.22.141.14.22.331.22.53v1c0 .199-.079.39-.22.53a.747.747 0 0 1-1.06 0A.75.75 0 0 1 5 8.5v-1c0-.199.079-.39.22-.53a.75.75 0 0 1 .53-.22m1-1c0-.199.079-.39.22-.53A.75.75 0 0 1 7.5 5h1c.199 0 .39.079.53.22a.747.747 0 0 1 0 1.06.75.75 0 0 1-.53.22h-1a.75.75 0 0 1-.53-.22.75.75 0 0 1-.22-.53m-4.5 0c0-.199.079-.39.22-.53A.75.75 0 0 1 3 5h1c.199 0 .39.079.53.22a.747.747 0 0 1 0 1.06.75.75 0 0 1-.53.22H3a.75.75 0 0 1-.53-.22.75.75 0 0 1-.22-.53M6.5 3v1c0 .199-.079.39-.22.53a.747.747 0 0 1-1.06 0A.75.75 0 0 1 5 4V3c0-.199.079-.39.22-.53a.747.747 0 0 1 1.06 0c.141.14.22.331.22.53"/></svg>
